svgs/solid/face-angry.svg

<svg xmlns="http://www.w3.org/2000/svg" viewBox="0 0 512 512"><!--! Font Awesome Pro 6.0.0-alpha3 by @fontawesome - https://fontawesome.com License - https://fontawesome.com/license (Commercial License) --><path d="M256 0C114.6 0 0 114.6 0 256s114.6 256 256 256s256-114.6 256-256S397.4 0 256 0zM143.1 240c0-9.25 4.117-17.53 10.54-23.41L123.5 207.3c-8.477-2.5-13.31-11.51-10.76-19.89c2.543-8.5 11.49-13.15 19.96-10.65l79.94 24c8.598 2.5 13.31 11.51 10.76 19.89C221.2 227.5 214.9 232 208 232c-.4844 0-1.078-.25-1.684-.25C207.1 234.5 208 237.1 208 240c0 17.75-14.32 32.03-31.1 32.03S143.1 257.8 143.1 240zM311.9 394.3c-27.73-33.5-84.16-33.5-112 0C186.4 410.5 161.7 390 175.4 373.8c19.98-24 49.45-37.83 80.57-37.83c31.24 0 60.63 13.83 80.61 37.83C350.3 390.3 325.4 410.3 311.9 394.3zM388.6 207.3l-30.1 9.355C363.9 222.4 368.1 230.8 368.1 240c0 17.75-14.26 32-32.06 32c-17.68 0-31.1-14.25-31.1-32c0-2.875 .999-5.625 1.726-8.25C305.2 231.9 304.7 232 304.1 232c-6.902 0-13.21-4.508-15.27-11.38c-2.543-8.5 2.316-17.39 10.67-19.89l80.03-24c8.355-2.5 17.45 2.277 19.87 10.65C401.9 195.9 397.1 204.8 388.6 207.3z"/></svg>

<svg xmlns="http://www.w3.org/2000/svg" viewBox="0 0 512 512"><!-- Font Awesome Pro 6.0.0-alpha2 by @fontawesome - https://fontawesome.com License - https://fontawesome.com/license (Commercial License) --><path d="M256 16C123.461 16 16 123.419 16 256S123.461 496 256 496S496 388.581 496 256S388.539 16 256 16ZM143.988 240C143.988 230.75 148.105 222.5 154.523 216.625L123.523 207.25C115.047 204.75 110.203 195.75 112.746 187.375C115.289 178.875 124.25 174.25 132.727 176.75L212.648 200.75C221.246 203.25 225.969 212.25 223.426 220.625C221.246 227.5 214.949 232 208.047 232C207.562 232 206.957 231.75 206.352 231.75C207.078 234.5 208.047 237.125 208.047 240C208.047 257.75 193.758 272 176.078 272S143.988 257.75 143.988 240ZM311.945 394.25C284.215 360.75 227.785 360.75 199.934 394.25C186.371 410.5 161.668 390 175.352 373.75C195.332 349.75 224.758 335.875 255.879 335.875C287.121 335.875 316.547 349.75 336.527 373.75C350.332 390.25 325.387 410.25 311.945 394.25ZM388.598 207.25L357.598 216.625C363.895 222.375 368.133 230.75 368.133 240C368.133 257.75 353.844 272 336.043 272C318.363 272 304.074 257.75 304.074 240C304.074 237.125 305.043 234.375 305.77 231.75C305.164 231.875 304.68 232 304.074 232C297.172 232 290.875 227.5 288.816 220.625C286.273 212.125 291.117 203.25 299.473 200.75L379.516 176.75C387.871 174.25 396.953 179 399.375 187.375C401.918 195.875 397.074 204.75 388.598 207.25Z"/></svg>
